X: 20591
T: DORR'S RETREAT
C:
%R: jig
B: Elias Howe "The Musician's Companion" 1843 p.59 #1
S: http://imslp.org/wiki/The_Musician's_Companion_(Howe,_Elias)
Z: 2015 John Chambers <jc:trillian.mit.edu>
M: 6/8
L: 1/8
K: G
% - - - - - - - - - - - - - - - - - - - - - - - - -
D |\
GAB GAB | GAB cBA | GAB GAB | ABG FED |\
GAB GAB | GAB cBc | def gdg | b2a g2 :|
|: D |\
G2g {a}gfg | b2g {a}gfg | G2g {a}gfg | baa age |\
G2g {a}gfg | b2a gfe | ded dBA | BGG G2 :|
% - - - - - - - - - - - - - - - - - - - - - - - - -

%%sep 1 1 500

